X: 1
T: Quadrilles des anc\^etres - Figure 2
O: Qu\'ebec
R: march, reel
Z: 2020 John Chambers <jc:trillian.mit.edu>
S: https://www.facebook.com/groups/fiddlehellmassachusetts/
M: 2/4
L: 1/16
K: D
|:\
A2d2 B2cB | A2d2 B2cB | A2d2 f2e2 | B2c2 e2d2 |\
A2d2 B2cB | A2d2 B2cB | A2d2 f2e2 | B2c2 d2d2 :|
|:\
A2d2 dddd | c2d2 e2e2 | A2c2 eeee | e2d2 fgfe |\
f2a2 g2f2 | e2d2 B2cB | A2d2 f2e2 | B2c2 d2d2 :|
